X: 2069
T: Asturian Air
R: hornpipe
M: 4/4
K: Bminor
F2|B2{c}Bc cdcA|{E}F3A G2FE|F2- F4FF|
B3 c edcA|JF2 FA {F}G2 FE|F6 (3cde|
f5 z ed|c3 B B4|(3cde ed edcB|^ABcd c2 BF|
(3cde ed edcB|^ABcd c2 BF|(3cde {d} e2{d} edcB|^A5 z f2|

